X: 4
T: Új korában repedjen meg a csizmám
M:4/4
L:1/4
K:F
d>d d<A | e e d>c | =B<A A z |
d>d c<=B | A<G =B<A | A<G G z |
F>G A<A | B A G (F/G/) | A G F z |
A>A A<D | F A G>F | E<D D z |

